report_00007_2020-12-11T15:55:29.892Z/mainthread-work-breakdown/comparison/sorted/10_vs_11.svg

<svg width="640" height="500" xmlns="http://www.w3.org/2000/svg" xmlns:xlink="http://www.w3.org/1999/xlink"><path fill="#fff" d="M0 0h640v500H0z"/><defs><path id="d" stroke-width=".222" stroke="currentColor" d="M-1-1h2v2h-2z"/><path id="b" stroke-width=".222" stroke="currentColor" d="M0-1.33l-1.33 2h2.66z"/><path id="f" stroke-width=".222" stroke="currentColor" d="M0 1.33L1.265.411.782-1.067l-1.564-.009-.483 1.487z"/><use xlink:href="#b" id="c" stroke="currentColor" transform="rotate(180)"/><use xlink:href="#d" id="e" stroke="currentColor" transform="rotate(45)"/><circle id="a" stroke-width=".222" stroke="currentColor" cx="0" cy="0" r="1"/></defs><g fill="none" color="#000" stroke="currentColor"><path stroke="#000" d="M53.9 314.7h9m552.1 0h-9"/><text transform="translate(45.6 318.6)" stroke="none" fill="#000" font-family="Arial" font-size="12" text-anchor="end"><tspan>450</tspan></text></g><g fill="none" color="#000" stroke="currentColor"><path stroke="#000" d="M53.9 221.2h9m552.1 0h-9"/><text transform="translate(45.6 225.1)" stroke="none" fill="#000" font-family="Arial" font-size="12" text-anchor="end"><tspan>500</tspan></text></g><g fill="none" color="#000" stroke="currentColor"><path stroke="#000" d="M53.9 127.8h9m552.1 0h-9"/><text transform="translate(45.6 131.7)" stroke="none" fill="#000" font-family="Arial" font-size="12" text-anchor="end"><tspan>550</tspan></text></g><g fill="none" color="#000" stroke="currentColor"><path stroke="#000" d="M53.9 34.3h9m552.1 0h-9"/><text transform="translate(45.6 38.2)" stroke="none" fill="#000" font-family="Arial" font-size="12" text-anchor="end"><tspan>600</tspan></text></g><g fill="none" color="#000" stroke="currentColor"><path stroke="#000" d="M53.9 392v-9m0-364.9v9"/><text transform="translate(53.9 413.9)" stroke="none" fill="#000" font-family="Arial" font-size="12" text-anchor="middle"><tspan>0</tspan></text></g><g fill="none" color="#000" stroke="currentColor"><path stroke="#000" d="M110.6 392v-9m0-364.9v9"/><text transform="translate(110.6 413.9)" stroke="none" fill="#000" font-family="Arial" font-size="12" text-anchor="middle"><tspan>10</tspan></text></g><g fill="none" color="#000" stroke="currentColor"><path stroke="#000" d="M167.3 392v-9m0-364.9v9"/><text transform="translate(167.3 413.9)" stroke="none" fill="#000" font-family="Arial" font-size="12" text-anchor="middle"><tspan>20</tspan></text></g><g fill="none" color="#000" stroke="currentColor"><path stroke="#000" d="M223.9 392v-9m0-364.9v9"/><text transform="translate(223.9 413.9)" stroke="none" fill="#000" font-family="Arial" font-size="12" text-anchor="middle"><tspan>30</tspan></text></g><g fill="none" color="#000" stroke="currentColor"><path stroke="#000" d="M280.6 392v-9m0-364.9v9"/><text transform="translate(280.6 413.9)" stroke="none" fill="#000" font-family="Arial" font-size="12" text-anchor="middle"><tspan>40</tspan></text></g><g fill="none" color="#000" stroke="currentColor"><path stroke="#000" d="M337.3 392v-9m0-364.9v9"/><text transform="translate(337.3 413.9)" stroke="none" fill="#000" font-family="Arial" font-size="12" text-anchor="middle"><tspan>50</tspan></text></g><g fill="none" color="#000" stroke="currentColor"><path stroke="#000" d="M394 392v-9m0-364.9v9"/><text transform="translate(394 413.9)" stroke="none" fill="#000" font-family="Arial" font-size="12" text-anchor="middle"><tspan>60</tspan></text></g><g fill="none" color="#000" stroke="currentColor"><path stroke="#000" d="M450.6 392v-9m0-364.9v9"/><text transform="translate(450.6 413.9)" stroke="none" fill="#000" font-family="Arial" font-size="12" text-anchor="middle"><tspan>70</tspan></text></g><g fill="none" color="#000" stroke="currentColor"><path stroke="#000" d="M507.3 392v-9m0-364.9v9"/><text transform="translate(507.3 413.9)" stroke="none" fill="#000" font-family="Arial" font-size="12" text-anchor="middle"><tspan>80</tspan></text></g><g fill="none" color="#000" stroke="currentColor"><path stroke="#000" d="M564 392v-9m0-364.9v9"/><text transform="translate(564 413.9)" stroke="none" fill="#000" font-family="Arial" font-size="12" text-anchor="middle"><tspan>90</tspan></text></g><path stroke="#000" d="M53.9 18.1V392H615V18.1H53.9z" fill="none" color="#000"/><text transform="translate(483.5 431.9)" stroke="none" fill="#000" font-family="Arial" font-size="12" text-anchor="end" color="#000"><tspan>pages+cached+noexternal+nojs</tspan></text><path stroke="#9400D3" d="M491.8 428H534M53.9 384.8l5.7-6.9 5.6-4.9 5.7-1.9 5.7-.5 5.6-.6 5.7-.9 5.7-2 5.6-.2 5.7-.4 5.7-.6 5.6-.1 5.7-.7h5.7l5.6-.4 5.7-.3 5.7-.3h5.7l5.6-.3 5.7-.2h5.7l5.6-1 5.7-.7h5.7l5.6-.1h5.7l5.7-.2h5.6l5.7-.1 5.7-.4 5.6-.1 5.7-.7 5.7-1 5.6-.4 5.7-.2 5.7-.5 5.6-.2 5.7-.1 5.7-.1h5.6l5.7-.3 5.7-.3 5.6-.3 5.7-.5 5.7-.7 5.6-.2 5.7-.6 5.7-.4h5.6l5.7-.3 5.7-.2 5.7-.3 5.6-.3 5.7-.3 5.7-.2 5.6-.1 5.7-.3 5.7-.7 5.6-.6 5.7-.2 5.7-.3 5.6-.1 5.7-.4 5.7-1.3h5.6l5.7-.8h5.7l5.6-.2 5.7-.1 5.7-.2 5.6-1.3 5.7-.1 5.7-.2h5.6l5.7-.4 5.7-1 5.6-.1 5.7-.3 5.7-.6 5.6-.2 5.7-.2 5.7-.1 5.6-1.1 5.7-.1 5.7-.2 5.7-.4 5.6-1.7 5.7-1.1 5.7-1.4 5.6-1.3 5.7-.1 5.7-.9 5.6-1 5.7-1.3 5.7-.2 5.6-1.4 5.7-.5 5.7-2.6 5.6-5.8 5.7-9.1" fill="none" color="#000"/><text transform="translate(483.5 449.9)" stroke="none" fill="#000" font-family="Arial" font-size="12" text-anchor="end" color="#000"><tspan>pages+cached+noexternal+nofonts+nosvg+noimg</tspan></text><path stroke="#009E73" d="M491.8 446H534M53.9 237.7l5.7-18.8 5.6-2.7 5.7-.6 5.7-6.4 5.6-1.5 5.7-.8 5.7-1.8 5.6-.8 5.7-1.3 5.7-1.2 5.6-2.7 5.7-.1 5.7-.8 5.6-1.7 5.7-1.6 5.7-1.2 5.7-1 5.6-.3 5.7-2.6 5.7-.2 5.6-2.8 5.7-.3 5.7-.4 5.6-.6 5.7-.9 5.7-.7 5.6-1.2 5.7-.4 5.7-.4 5.6-.3 5.7-.1 5.7-1.8 5.6-.2 5.7-.7 5.7-.1 5.6-.5 5.7-.4 5.7-.5 5.6-.1 5.7-.5h5.7l5.6-.4 5.7-.2 5.7-.5 5.6-.8 5.7-1.3 5.7-.3 5.6-.2h5.7l5.7-.2 5.7-.7 5.6-.7 5.7-.4 5.7-.8 5.6-.1 5.7-1.4h5.7l5.6-.2 5.7-.5 5.7-.4 5.6-.1 5.7-.1 5.7-.7 5.6-.3 5.7-.3 5.7-.1 5.6-1.2h5.7l5.7-.4 5.6-.1 5.7-.3 5.7-.5 5.6-1.5 5.7-.3 5.7-.6 5.6-1.2 5.7-.4 5.7-.1 5.6-1.2 5.7-.4 5.7-1.5 5.6-1.3 5.7-.7 5.7-.9h5.7l5.6-2.2 5.7-2.3 5.7-2.9 5.6-.1 5.7-4.9 5.7-.8 5.6-.7 5.7-10.3 5.7-6.2 5.6-15.7 5.7-4.2 5.7-3.1 5.6-71.5 5.7-3.2" fill="none" color="#000"/><text transform="translate(483.5 467.9)" stroke="none" fill="#000" font-family="Arial" font-size="12" text-anchor="end" color="#000"><tspan>score p10=2017</tspan></text><path stroke="#56B4E9" d="M491.8 464H534" fill="none" color="#000"/><g><text transform="translate(483.5 485.9)" stroke="none" fill="#000" font-family="Arial" font-size="12" text-anchor="end" color="#000"><tspan>score median=4000</tspan></text><path stroke="#E69F00" d="M491.8 482H534" fill="none" color="#000"/></g><g fill="none" color="#000" stroke="currentColor"><path stroke="#000" d="M53.9 18.1V392H615V18.1H53.9z"/></g></svg>

<?xml version="1.0" encoding="utf-8"  standalone="no"?>
<svg 
 width="640" height="500"
 viewBox="0 0 640 500"
 xmlns="http://www.w3.org/2000/svg"
 xmlns:xlink="http://www.w3.org/1999/xlink"
>

<title>Gnuplot</title>
<desc>Produced by GNUPLOT 5.4 patchlevel 0 </desc>

<g id="gnuplot_canvas">

<rect x="0" y="0" width="640" height="500" fill="#ffffff"/>
<defs>

	<circle id='gpDot' r='0.5' stroke-width='0.5' stroke='currentColor'/>
	<path id='gpPt0' stroke-width='0.222' stroke='currentColor' d='M-1,0 h2 M0,-1 v2'/>
	<path id='gpPt1' stroke-width='0.222' stroke='currentColor' d='M-1,-1 L1,1 M1,-1 L-1,1'/>
	<path id='gpPt2' stroke-width='0.222' stroke='currentColor' d='M-1,0 L1,0 M0,-1 L0,1 M-1,-1 L1,1 M-1,1 L1,-1'/>
	<rect id='gpPt3' stroke-width='0.222' stroke='currentColor' x='-1' y='-1' width='2' height='2'/>
	<rect id='gpPt4' stroke-width='0.222' stroke='currentColor' fill='currentColor' x='-1' y='-1' width='2' height='2'/>
	<circle id='gpPt5' stroke-width='0.222' stroke='currentColor' cx='0' cy='0' r='1'/>
	<use xlink:href='#gpPt5' id='gpPt6' fill='currentColor' stroke='none'/>
	<path id='gpPt7' stroke-width='0.222' stroke='currentColor' d='M0,-1.33 L-1.33,0.67 L1.33,0.67 z'/>
	<use xlink:href='#gpPt7' id='gpPt8' fill='currentColor' stroke='none'/>
	<use xlink:href='#gpPt7' id='gpPt9' stroke='currentColor' transform='rotate(180)'/>
	<use xlink:href='#gpPt9' id='gpPt10' fill='currentColor' stroke='none'/>
	<use xlink:href='#gpPt3' id='gpPt11' stroke='currentColor' transform='rotate(45)'/>
	<use xlink:href='#gpPt11' id='gpPt12' fill='currentColor' stroke='none'/>
	<path id='gpPt13' stroke-width='0.222' stroke='currentColor' d='M0,1.330 L1.265,0.411 L0.782,-1.067 L-0.782,-1.076 L-1.265,0.411 z'/>
	<use xlink:href='#gpPt13' id='gpPt14' fill='currentColor' stroke='none'/>
	<filter id='textbox' filterUnits='objectBoundingBox' x='0' y='0' height='1' width='1'>
	  <feFlood flood-color='#FFFFFF' flood-opacity='1' result='bgnd'/>
	  <feComposite in='SourceGraphic' in2='bgnd' operator='atop'/>
	</filter>
	<filter id='greybox' filterUnits='objectBoundingBox' x='0' y='0' height='1' width='1'>
	  <feFlood flood-color='lightgrey' flood-opacity='1' result='grey'/>
	  <feComposite in='SourceGraphic' in2='grey' operator='atop'/>
	</filter>
</defs>
<g fill="none" color="#FFFFFF" stroke="black" stroke-width="1.00" stroke-linecap="butt" stroke-linejoin="miter">
</g>
<g fill="none" color="black" stroke="currentColor" stroke-width="1.00" stroke-linecap="butt" stroke-linejoin="miter">
	<path stroke='black'  d='M53.9,314.7 L62.9,314.7 M615.0,314.7 L606.0,314.7  '/>	<g transform="translate(45.6,318.6)" stroke="none" fill="black" font-family="Arial" font-size="12.00"  text-anchor="end">
		<text><tspan font-family="Arial" > 450</tspan></text>
	</g>
</g>
<g fill="none" color="black" stroke="currentColor" stroke-width="1.00" stroke-linecap="butt" stroke-linejoin="miter">
	<path stroke='black'  d='M53.9,221.2 L62.9,221.2 M615.0,221.2 L606.0,221.2  '/>	<g transform="translate(45.6,225.1)" stroke="none" fill="black" font-family="Arial" font-size="12.00"  text-anchor="end">
		<text><tspan font-family="Arial" > 500</tspan></text>
	</g>
</g>
<g fill="none" color="black" stroke="currentColor" stroke-width="1.00" stroke-linecap="butt" stroke-linejoin="miter">
	<path stroke='black'  d='M53.9,127.8 L62.9,127.8 M615.0,127.8 L606.0,127.8  '/>	<g transform="translate(45.6,131.7)" stroke="none" fill="black" font-family="Arial" font-size="12.00"  text-anchor="end">
		<text><tspan font-family="Arial" > 550</tspan></text>
	</g>
</g>
<g fill="none" color="black" stroke="currentColor" stroke-width="1.00" stroke-linecap="butt" stroke-linejoin="miter">
	<path stroke='black'  d='M53.9,34.3 L62.9,34.3 M615.0,34.3 L606.0,34.3  '/>	<g transform="translate(45.6,38.2)" stroke="none" fill="black" font-family="Arial" font-size="12.00"  text-anchor="end">
		<text><tspan font-family="Arial" > 600</tspan></text>
	</g>
</g>
<g fill="none" color="black" stroke="currentColor" stroke-width="1.00" stroke-linecap="butt" stroke-linejoin="miter">
	<path stroke='black'  d='M53.9,392.0 L53.9,383.0 M53.9,18.1 L53.9,27.1  '/>	<g transform="translate(53.9,413.9)" stroke="none" fill="black" font-family="Arial" font-size="12.00"  text-anchor="middle">
		<text><tspan font-family="Arial" > 0</tspan></text>
	</g>
</g>
<g fill="none" color="black" stroke="currentColor" stroke-width="1.00" stroke-linecap="butt" stroke-linejoin="miter">
	<path stroke='black'  d='M110.6,392.0 L110.6,383.0 M110.6,18.1 L110.6,27.1  '/>	<g transform="translate(110.6,413.9)" stroke="none" fill="black" font-family="Arial" font-size="12.00"  text-anchor="middle">
		<text><tspan font-family="Arial" > 10</tspan></text>
	</g>
</g>
<g fill="none" color="black" stroke="currentColor" stroke-width="1.00" stroke-linecap="butt" stroke-linejoin="miter">
	<path stroke='black'  d='M167.3,392.0 L167.3,383.0 M167.3,18.1 L167.3,27.1  '/>	<g transform="translate(167.3,413.9)" stroke="none" fill="black" font-family="Arial" font-size="12.00"  text-anchor="middle">
		<text><tspan font-family="Arial" > 20</tspan></text>
	</g>
</g>
<g fill="none" color="black" stroke="currentColor" stroke-width="1.00" stroke-linecap="butt" stroke-linejoin="miter">
	<path stroke='black'  d='M223.9,392.0 L223.9,383.0 M223.9,18.1 L223.9,27.1  '/>	<g transform="translate(223.9,413.9)" stroke="none" fill="black" font-family="Arial" font-size="12.00"  text-anchor="middle">
		<text><tspan font-family="Arial" > 30</tspan></text>
	</g>
</g>
<g fill="none" color="black" stroke="currentColor" stroke-width="1.00" stroke-linecap="butt" stroke-linejoin="miter">
	<path stroke='black'  d='M280.6,392.0 L280.6,383.0 M280.6,18.1 L280.6,27.1  '/>	<g transform="translate(280.6,413.9)" stroke="none" fill="black" font-family="Arial" font-size="12.00"  text-anchor="middle">
		<text><tspan font-family="Arial" > 40</tspan></text>
	</g>
</g>
<g fill="none" color="black" stroke="currentColor" stroke-width="1.00" stroke-linecap="butt" stroke-linejoin="miter">
	<path stroke='black'  d='M337.3,392.0 L337.3,383.0 M337.3,18.1 L337.3,27.1  '/>	<g transform="translate(337.3,413.9)" stroke="none" fill="black" font-family="Arial" font-size="12.00"  text-anchor="middle">
		<text><tspan font-family="Arial" > 50</tspan></text>
	</g>
</g>
<g fill="none" color="black" stroke="currentColor" stroke-width="1.00" stroke-linecap="butt" stroke-linejoin="miter">
	<path stroke='black'  d='M394.0,392.0 L394.0,383.0 M394.0,18.1 L394.0,27.1  '/>	<g transform="translate(394.0,413.9)" stroke="none" fill="black" font-family="Arial" font-size="12.00"  text-anchor="middle">
		<text><tspan font-family="Arial" > 60</tspan></text>
	</g>
</g>
<g fill="none" color="black" stroke="currentColor" stroke-width="1.00" stroke-linecap="butt" stroke-linejoin="miter">
	<path stroke='black'  d='M450.6,392.0 L450.6,383.0 M450.6,18.1 L450.6,27.1  '/>	<g transform="translate(450.6,413.9)" stroke="none" fill="black" font-family="Arial" font-size="12.00"  text-anchor="middle">
		<text><tspan font-family="Arial" > 70</tspan></text>
	</g>
</g>
<g fill="none" color="black" stroke="currentColor" stroke-width="1.00" stroke-linecap="butt" stroke-linejoin="miter">
	<path stroke='black'  d='M507.3,392.0 L507.3,383.0 M507.3,18.1 L507.3,27.1  '/>	<g transform="translate(507.3,413.9)" stroke="none" fill="black" font-family="Arial" font-size="12.00"  text-anchor="middle">
		<text><tspan font-family="Arial" > 80</tspan></text>
	</g>
</g>
<g fill="none" color="black" stroke="currentColor" stroke-width="1.00" stroke-linecap="butt" stroke-linejoin="miter">
	<path stroke='black'  d='M564.0,392.0 L564.0,383.0 M564.0,18.1 L564.0,27.1  '/>	<g transform="translate(564.0,413.9)" stroke="none" fill="black" font-family="Arial" font-size="12.00"  text-anchor="middle">
		<text><tspan font-family="Arial" > 90</tspan></text>
	</g>
</g>
<g fill="none" color="black" stroke="currentColor" stroke-width="1.00" stroke-linecap="butt" stroke-linejoin="miter">
</g>
<g fill="none" color="black" stroke="currentColor" stroke-width="1.00" stroke-linecap="butt" stroke-linejoin="miter">
	<path stroke='black'  d='M53.9,18.1 L53.9,392.0 L615.0,392.0 L615.0,18.1 L53.9,18.1 Z  '/></g>
<g fill="none" color="black" stroke="currentColor" stroke-width="1.00" stroke-linecap="butt" stroke-linejoin="miter">
</g>
	<g id="gnuplot_plot_1" ><title>pages+cached+noexternal+nojs</title>
<g fill="none" color="black" stroke="currentColor" stroke-width="1.00" stroke-linecap="butt" stroke-linejoin="miter">
	<g transform="translate(483.5,431.9)" stroke="none" fill="black" font-family="Arial" font-size="12.00"  text-anchor="end">
		<text><tspan font-family="Arial" >pages+cached+noexternal+nojs</tspan></text>
	</g>
</g>
<g fill="none" color="black" stroke="currentColor" stroke-width="1.00" stroke-linecap="butt" stroke-linejoin="miter">
	<path stroke='rgb(148,   0, 211)'  d='M491.8,428.0 L534.0,428.0 M53.9,384.8 L59.6,377.9 L65.2,373.0 L70.9,371.1 L76.6,370.6 L82.2,370.0
		L87.9,369.1 L93.6,367.1 L99.2,366.9 L104.9,366.5 L110.6,365.9 L116.2,365.8 L121.9,365.1 L127.6,365.1
		L133.2,364.7 L138.9,364.4 L144.6,364.1 L150.3,364.1 L155.9,363.8 L161.6,363.6 L167.3,363.6 L172.9,362.6
		L178.6,361.9 L184.3,361.9 L189.9,361.8 L195.6,361.8 L201.3,361.6 L206.9,361.6 L212.6,361.5 L218.3,361.1
		L223.9,361.0 L229.6,360.3 L235.3,359.3 L240.9,358.9 L246.6,358.7 L252.3,358.2 L257.9,358.0 L263.6,357.9
		L269.3,357.8 L274.9,357.8 L280.6,357.5 L286.3,357.2 L291.9,356.9 L297.6,356.4 L303.3,355.7 L308.9,355.5
		L314.6,354.9 L320.3,354.5 L325.9,354.5 L331.6,354.2 L337.3,354.0 L343.0,353.7 L348.6,353.4 L354.3,353.1
		L360.0,352.9 L365.6,352.8 L371.3,352.5 L377.0,351.8 L382.6,351.2 L388.3,351.0 L394.0,350.7 L399.6,350.6
		L405.3,350.2 L411.0,348.9 L416.6,348.9 L422.3,348.1 L428.0,348.1 L433.6,347.9 L439.3,347.8 L445.0,347.6
		L450.6,346.3 L456.3,346.2 L462.0,346.0 L467.6,346.0 L473.3,345.6 L479.0,344.6 L484.6,344.5 L490.3,344.2
		L496.0,343.6 L501.6,343.4 L507.3,343.2 L513.0,343.1 L518.6,342.0 L524.3,341.9 L530.0,341.7 L535.7,341.3
		L541.3,339.6 L547.0,338.5 L552.7,337.1 L558.3,335.8 L564.0,335.7 L569.7,334.8 L575.3,333.8 L581.0,332.5
		L586.7,332.3 L592.3,330.9 L598.0,330.4 L603.7,327.8 L609.3,322.0 L615.0,312.9  '/></g>
	</g>
	<g id="gnuplot_plot_2" ><title>pages+cached+noexternal+nofonts+nosvg+noimg</title>
<g fill="none" color="black" stroke="currentColor" stroke-width="1.00" stroke-linecap="butt" stroke-linejoin="miter">
	<g transform="translate(483.5,449.9)" stroke="none" fill="black" font-family="Arial" font-size="12.00"  text-anchor="end">
		<text><tspan font-family="Arial" >pages+cached+noexternal+nofonts+nosvg+noimg</tspan></text>
	</g>
</g>
<g fill="none" color="black" stroke="currentColor" stroke-width="1.00" stroke-linecap="butt" stroke-linejoin="miter">
	<path stroke='rgb(  0, 158, 115)'  d='M491.8,446.0 L534.0,446.0 M53.9,237.7 L59.6,218.9 L65.2,216.2 L70.9,215.6 L76.6,209.2 L82.2,207.7
		L87.9,206.9 L93.6,205.1 L99.2,204.3 L104.9,203.0 L110.6,201.8 L116.2,199.1 L121.9,199.0 L127.6,198.2
		L133.2,196.5 L138.9,194.9 L144.6,193.7 L150.3,192.7 L155.9,192.4 L161.6,189.8 L167.3,189.6 L172.9,186.8
		L178.6,186.5 L184.3,186.1 L189.9,185.5 L195.6,184.6 L201.3,183.9 L206.9,182.7 L212.6,182.3 L218.3,181.9
		L223.9,181.6 L229.6,181.5 L235.3,179.7 L240.9,179.5 L246.6,178.8 L252.3,178.7 L257.9,178.2 L263.6,177.8
		L269.3,177.3 L274.9,177.2 L280.6,176.7 L286.3,176.7 L291.9,176.3 L297.6,176.1 L303.3,175.6 L308.9,174.8
		L314.6,173.5 L320.3,173.2 L325.9,173.0 L331.6,173.0 L337.3,172.8 L343.0,172.1 L348.6,171.4 L354.3,171.0
		L360.0,170.2 L365.6,170.1 L371.3,168.7 L377.0,168.7 L382.6,168.5 L388.3,168.0 L394.0,167.6 L399.6,167.5
		L405.3,167.4 L411.0,166.7 L416.6,166.4 L422.3,166.1 L428.0,166.0 L433.6,164.8 L439.3,164.8 L445.0,164.4
		L450.6,164.3 L456.3,164.0 L462.0,163.5 L467.6,162.0 L473.3,161.7 L479.0,161.1 L484.6,159.9 L490.3,159.5
		L496.0,159.4 L501.6,158.2 L507.3,157.8 L513.0,156.3 L518.6,155.0 L524.3,154.3 L530.0,153.4 L535.7,153.4
		L541.3,151.2 L547.0,148.9 L552.7,146.0 L558.3,145.9 L564.0,141.0 L569.7,140.2 L575.3,139.5 L581.0,129.2
		L586.7,123.0 L592.3,107.3 L598.0,103.1 L603.7,100.0 L609.3,28.5 L615.0,25.3  '/></g>
	</g>
	<g id="gnuplot_plot_3" ><title>score p10=2017</title>
<g fill="none" color="black" stroke="currentColor" stroke-width="1.00" stroke-linecap="butt" stroke-linejoin="miter">
	<g transform="translate(483.5,467.9)" stroke="none" fill="black" font-family="Arial" font-size="12.00"  text-anchor="end">
		<text><tspan font-family="Arial" >score p10=2017</tspan></text>
	</g>
</g>
<g fill="none" color="black" stroke="currentColor" stroke-width="1.00" stroke-linecap="butt" stroke-linejoin="miter">
	<path stroke='rgb( 86, 180, 233)'  d='M491.8,464.0 L534.0,464.0  '/></g>
	</g>
	<g id="gnuplot_plot_4" ><title>score median=4000</title>
<g fill="none" color="black" stroke="currentColor" stroke-width="1.00" stroke-linecap="butt" stroke-linejoin="miter">
	<g transform="translate(483.5,485.9)" stroke="none" fill="black" font-family="Arial" font-size="12.00"  text-anchor="end">
		<text><tspan font-family="Arial" >score median=4000</tspan></text>
	</g>
</g>
<g fill="none" color="black" stroke="currentColor" stroke-width="1.00" stroke-linecap="butt" stroke-linejoin="miter">
	<path stroke='rgb(230, 159,   0)'  d='M491.8,482.0 L534.0,482.0  '/></g>
	</g>
<g fill="none" color="#FFFFFF" stroke="rgb(230, 159,   0)" stroke-width="2.00" stroke-linecap="butt" stroke-linejoin="miter">
</g>
<g fill="none" color="black" stroke="currentColor" stroke-width="2.00" stroke-linecap="butt" stroke-linejoin="miter">
</g>
<g fill="none" color="black" stroke="black" stroke-width="1.00" stroke-linecap="butt" stroke-linejoin="miter">
</g>
<g fill="none" color="black" stroke="currentColor" stroke-width="1.00" stroke-linecap="butt" stroke-linejoin="miter">
	<path stroke='black'  d='M53.9,18.1 L53.9,392.0 L615.0,392.0 L615.0,18.1 L53.9,18.1 Z  '/></g>
<g fill="none" color="black" stroke="currentColor" stroke-width="1.00" stroke-linecap="butt" stroke-linejoin="miter">
</g>
</g>
</svg>
